(.../Eagle_Projects/ULP/pcb-gcode/pcb-gcode.ulp)
(Copyright 2005 - 2012 by John Johnson)
(See readme.txt for licensing terms.)
(This file generated from the board:)
(.../AutoLevel Module/AutoLevel Module V1.brd)
(Current profile is .../pcb-gcode/profiles/generic.pp  )
(This file generated 2015/09/03 5:18 PM)
(Settings from pcb-machine.h)
(spindle on time = 3.0000)
(spindle speed = 20000.0000)
(tool change at 0.0000 0.0000 25.4000 )
(feed rate xy = F0.00  )
(feed rate z  = F100.00 )
(Z Axis Settings)
(  High     Up        Down     Drill)
(10.0000 	5.0000 	-0.1778 	-1.8000 )
(Settings from pcb-defaults.h)
(isolate min = 0.0254)
(isolate max = 0.5080)
(isolate step = 0.1270)
(Generated top drill, bottom drill, )
(Unit of measure: mm)
( Tool|       Size       |  Min Sub |  Max Sub |   Count )
( T01  1.016mm 0.0400in 0.0000in 0.0000in )
( T02  1.500mm 0.0591in 0.0000in 0.0000in )
(Metric Mode)
G21
(Absolute Coordinates)
G90
S20000
G00 Z10.0000 
G00 X0.0000 Y0.0000 
M03
G04 P3.000000
M05
G00 Z25.4000 
M06 T01  ; 1.0160 
G01 Z0.0000 F100.00 
M06 
G00 Z5.0000 
M03
G04 P3.000000
G00 Z5.000000
G00 X-2.2530 Y6.0330 
G01 Z-1.8000 F100.00 
G01 Z5.000000
(R5.0000  P1.000000)
G00 X-2.2530 Y8.5730 
G01 Z-1.800000
G01 Z5.000000
G00 X-2.2530 Y11.1130 
G01 Z-1.800000
G01 Z5.000000
G00 X-8.0010 Y11.0490 
G01 Z-1.800000
G01 Z5.000000
G00 X-8.0010 Y8.5090 
G01 Z-1.800000
G01 Z5.000000
G00 X-8.8900 Y4.5800 
G01 Z-1.800000
G01 Z5.000000
G00 X-11.4300 Y4.5800 
G01 Z-1.800000
G01 Z5.000000
G00 X-11.4300 Y2.0400 
G01 Z-1.800000
G01 Z5.000000
G00 X-8.8900 Y2.0400 
G01 Z-1.800000
G01 Z5.000000
G00 X-6.3500 Y2.0400 
G01 Z-1.800000
G01 Z5.000000
G00 X-6.3500 Y4.5800 
G01 Z-1.800000
G01 Z5.000000
G00 X-12.3190 Y8.5090 
G01 Z-1.800000
G01 Z5.000000
G00 X-12.3190 Y11.0490 
G01 Z-1.800000
G01 Z5.000000
G00 X-16.6370 Y11.0490 
G01 Z-1.800000
G01 Z5.000000
G00 X-16.6370 Y8.5090 
G01 Z-1.800000
G01 Z5.000000
G00 X-15.5550 Y4.1030 
G01 Z-1.800000
G01 Z5.000000
M05
G00 Z25.4000 
G00 X0.0000 Y0.0000 
M06 T02  ; 1.5000 
G01 Z0.0000 F100.00 
M06 
G00 Z5.0000 
M03
G04 P3.000000
G00 Z5.000000
G00 X-15.6210 Y1.3970 
G01 Z-1.8000 F100.00 
G01 Z5.000000
(R5.0000  P1.000000)
T01 
G00 Z10.0000 
M05
M02
